suite-common/icons/assets/icons/eyeSlashSolid.svg

<svg xmlns="http://www.w3.org/2000/svg" xml:space="preserve" fill="none" viewBox="0 0 24 24">
  <path fill="#757575" fill-rule="evenodd" d="M4.15 3.123a.736.736 0 0 0-.32.921c.049.11.416.545.984 1.167.498.545.905 1.004.904 1.02s-.186.149-.41.296-.606.425-.848.618c-.558.444-1.577 1.463-2.035 2.035-.481.6-1.131 1.582-1.423 2.15-.325.63-.325.709-.01 1.32.839 1.627 2.245 3.284 3.748 4.418a11.8 11.8 0 0 0 4.926 2.21c1.296.261 3.017.284 4.374.058.783-.13 1.862-.436 2.528-.717l.314-.132 1.069 1.177c1.177 1.296 1.256 1.361 1.611 1.327a.72.72 0 0 0 .67-.793.9.9 0 0 0-.079-.323C19.994 19.637 5.058 3.248 4.91 3.15a.79.79 0 0 0-.76-.027m6.43 1.458a8 8 0 0 0-.66.101c-.493.121-.743.645-.51 1.07.076.138 9.315 10.334 9.656 10.655.204.193.436.238.749.144.306-.092 1.39-1.219 2.133-2.218.418-.562.881-1.304 1.115-1.784.251-.514.245-.617-.065-1.219-.292-.567-.941-1.549-1.423-2.15-.457-.571-1.437-1.553-1.995-1.998-1.716-1.371-3.642-2.221-5.76-2.545-.732-.111-2.507-.142-3.24-.056m.86 7.907a241 241 0 0 1 2.192 2.432c.016.042-.372.219-.718.328-.257.08-.375.092-.934.091-.618-.001-.653-.006-1.02-.132a3.4 3.4 0 0 1-2.209-2.315c-.131-.453-.13-1.333.001-1.789.088-.306.429-1.026.482-1.02.014.002 1.007 1.084 2.206 2.405"/>
</svg>

<svg xmlns="http://www.w3.org/2000/svg" xml:space="preserve" fill="none" viewBox="0 0 24 24"><path d="M4.150 3.123 C 3.831 3.291,3.683 3.716,3.830 4.044 C 3.879 4.154,4.246 4.589,4.814 5.211 C 5.312 5.756,5.719 6.215,5.718 6.231 C 5.717 6.247,5.532 6.380,5.308 6.527 C 5.084 6.674,4.702 6.952,4.460 7.145 C 3.902 7.589,2.883 8.608,2.425 9.180 C 1.944 9.780,1.294 10.762,1.002 11.330 C 0.677 11.960,0.677 12.039,0.992 12.650 C 1.831 14.277,3.237 15.934,4.740 17.068 C 6.230 18.193,7.821 18.906,9.666 19.278 C 10.962 19.539,12.683 19.562,14.040 19.336 C 14.823 19.206,15.902 18.900,16.568 18.619 L 16.882 18.487 17.951 19.664 C 19.128 20.960,19.207 21.025,19.562 20.991 C 19.984 20.950,20.263 20.620,20.232 20.198 C 20.223 20.072,20.187 19.927,20.153 19.875 C 19.994 19.637,5.058 3.248,4.910 3.150 C 4.702 3.012,4.381 3.001,4.150 3.123 M10.580 4.581 C 10.316 4.612,10.019 4.657,9.920 4.682 C 9.427 4.803,9.177 5.327,9.410 5.752 C 9.486 5.890,18.725 16.086,19.066 16.407 C 19.270 16.600,19.502 16.645,19.815 16.551 C 20.121 16.459,21.205 15.332,21.948 14.333 C 22.366 13.771,22.829 13.029,23.063 12.549 C 23.314 12.035,23.308 11.932,22.998 11.330 C 22.706 10.763,22.057 9.781,21.575 9.180 C 21.118 8.609,20.138 7.627,19.580 7.182 C 17.864 5.811,15.938 4.961,13.820 4.637 C 13.088 4.526,11.313 4.495,10.580 4.581 M11.440 12.488 C 12.639 13.809,13.625 14.903,13.632 14.920 C 13.648 14.962,13.260 15.139,12.914 15.248 C 12.657 15.328,12.539 15.340,11.980 15.339 C 11.362 15.338,11.327 15.333,10.960 15.207 C 9.863 14.829,9.070 13.997,8.751 12.892 C 8.620 12.439,8.621 11.559,8.752 11.103 C 8.840 10.797,9.181 10.077,9.234 10.083 C 9.248 10.085,10.241 11.167,11.440 12.488 " fill="#757575" stroke="none" fill-rule="evenodd"></path></svg>
